X:897
T:Reel 897
M:4/4
K:Emin
L:1/8
E>F (3GFE d>E (3EDE |FDAG FDD2||G>F (3BED E2e2|dcdB AFE2:||2G2GF G2ec|dBAF E2GA|Bee^d e2ef|gefe dBB2|Beed e2dB|BABc d2AF|Beef e2ef|g>efe eBe2ed|Beed egfe|dBAF GEE2|
